front/public/static/landing/logos/gray/ornikar.svg

<svg fill="none" height="240" viewBox="0 0 600 240" width="600" xmlns="http://www.w3.org/2000/svg" xmlns:xlink="http://www.w3.org/1999/xlink"><mask id="a" height="72" maskUnits="userSpaceOnUse" width="376" x="112" y="84"><path d="m488 84.4016h-376v71.0554h376z" fill="#fff"/></mask><g fill="#364153" mask="url(#a)"><path d="m324.887 91.4076c0-3.9506 3.162-7.006 7.122-7.006 3.86 0 7.022 3.0554 7.022 7.006 0 3.9507-3.162 7.0061-7.022 7.0061-3.946 0-7.122-3.0554-7.122-7.0061zm1.196 62.5714v-49.739h11.866v49.739z"/><path d="m193.518 113.52c4.174 0 8.091 1.62 11.054 4.562 2.948 2.941 4.572 6.864 4.572 11.027 0 4.164-1.624 8.072-4.572 11.028-2.949 2.942-6.88 4.562-11.054 4.562-4.173 0-8.091-1.62-11.053-4.562-2.949-2.942-4.573-6.864-4.573-11.028 0-4.163 1.624-8.071 4.573-11.027 2.948-2.942 6.88-4.562 11.053-4.562zm0-10.758c-14.586 0-26.409 11.795-26.409 26.347s11.823 26.348 26.409 26.348 26.409-11.796 26.409-26.348-11.823-26.347-26.409-26.347z"/><path d="m349.551 153.979v-49.739h11.766v22.34l17.805-22.34h13.305l-20.028 24.4 20.81 25.339h-13.447l-18.46-22.695v22.695z"/><path d="m434.844 104.24v5.045c-3.745-3.851-8.503-6.523-14.841-6.523-14.587 0-26.409 11.795-26.409 26.347s11.822 26.348 26.409 26.348c6.338 0 11.096-2.672 14.841-6.523v5.045h11.881v-49.739zm-3.801 35.883c-2.949 2.942-6.881 4.562-11.055 4.562-4.175 0-8.092-1.62-11.052-4.562-2.949-2.942-4.574-6.864-4.574-11.028s1.625-8.072 4.574-11.028c2.946-2.941 6.877-4.562 11.052-4.562 4.174 0 8.091 1.621 11.055 4.562 2.946 2.942 4.571 6.864 4.571 11.028.015 4.178-1.625 8.086-4.571 11.028z"/><path d="m458.305 153.979v-49.739h11.765v5.045c4.272-4.221 6.354-5.045 14.842-5.045h2.664v11.255c-1.424 0-2.264 0-4.047 0-8.204 0-13.444 5.13-13.444 13.33v25.168h-11.78z"/><path d="m229.629 153.979v-49.739h11.766v5.045c4.273-4.221 6.353-5.045 14.842-5.045h2.664v11.255c-1.424 0-2.265 0-4.045 0-8.205 0-13.447 5.13-13.447 13.33v25.168h-11.78z"/><path d="m295.607 103.246c-9.601 0-12.55 3.481-15.142 6.025v-5.045h-11.766v49.739h11.766v-28.607c0-6.807 4.843-11.553 11.581-11.553 6.623 0 10.583 4.249 10.583 11.056v29.118h11.866v-30.795c0-12.335-7.023-19.938-18.888-19.938z"/><path d="m156.456 102.762h-39.058c-2.976 0-5.398 2.402-5.398 5.372s2.422 5.386 5.398 5.386h39.072c2.978 0 5.399-2.416 5.399-5.386-.014-2.97-2.421-5.372-5.413-5.372zm-5.526 21.516h-20.028c-2.977 0-5.399 2.415-5.399 5.386 0 2.97 2.422 5.386 5.399 5.386h20.028c2.977 0 5.398-2.416 5.398-5.386-.014-2.971-2.421-5.386-5.398-5.386z"/></g></svg>

<svg width="600" height="240" viewBox="0 0 600 240" fill="none" xmlns="http://www.w3.org/2000/svg">
<mask id="mask0_1904_3568" style="mask-type:luminance" maskUnits="userSpaceOnUse" x="112" y="84" width="376" height="72">
<path d="M488 84.4016H112V155.457H488V84.4016Z" fill="white"/>
</mask>
<g mask="url(#mask0_1904_3568)">
<path d="M324.887 91.4076C324.887 87.457 328.049 84.4016 332.009 84.4016C335.869 84.4016 339.031 87.457 339.031 91.4076C339.031 95.3583 335.869 98.4137 332.009 98.4137C328.063 98.4137 324.887 95.3583 324.887 91.4076ZM326.083 153.979V104.24H337.949V153.979H326.083Z" fill="#364153"/>
<path d="M193.518 113.52C197.692 113.52 201.609 115.14 204.572 118.082C207.52 121.023 209.144 124.946 209.144 129.109C209.144 133.273 207.52 137.181 204.572 140.137C201.623 143.079 197.692 144.699 193.518 144.699C189.345 144.699 185.427 143.079 182.465 140.137C179.516 137.195 177.892 133.273 177.892 129.109C177.892 124.946 179.516 121.038 182.465 118.082C185.413 115.14 189.345 113.52 193.518 113.52ZM193.518 102.762C178.932 102.762 167.109 114.557 167.109 129.109C167.109 143.661 178.932 155.457 193.518 155.457C208.104 155.457 219.927 143.661 219.927 129.109C219.927 114.557 208.104 102.762 193.518 102.762Z" fill="#364153"/>
<path d="M349.551 153.979V104.24H361.317V126.58L379.122 104.24H392.427L372.399 128.64L393.209 153.979H379.762L361.302 131.284V153.979H349.551Z" fill="#364153"/>
<path d="M434.844 104.24V109.285C431.099 105.434 426.341 102.762 420.003 102.762C405.416 102.762 393.594 114.557 393.594 129.109C393.594 143.661 405.416 155.457 420.003 155.457C426.341 155.457 431.099 152.785 434.844 148.934V153.979H446.725V104.24H434.844ZM431.043 140.123C428.094 143.065 424.162 144.685 419.988 144.685C415.813 144.685 411.896 143.065 408.936 140.123C405.987 137.181 404.362 133.259 404.362 129.095C404.362 124.931 405.987 121.023 408.936 118.067C411.882 115.126 415.813 113.505 419.988 113.505C424.162 113.505 428.079 115.126 431.043 118.067C433.989 121.009 435.614 124.931 435.614 129.095C435.629 133.273 433.989 137.181 431.043 140.123Z" fill="#364153"/>
<path d="M458.305 153.979V104.24H470.07V109.285C474.342 105.064 476.424 104.24 484.912 104.24C486.294 104.24 486.522 104.24 487.576 104.24V115.495C486.152 115.495 485.312 115.495 483.529 115.495C475.325 115.495 470.085 120.625 470.085 128.825V153.993H458.305V153.979Z" fill="#364153"/>
<path d="M229.629 153.979V104.24H241.395V109.285C245.668 105.064 247.748 104.24 256.237 104.24C257.605 104.24 257.847 104.24 258.901 104.24V115.495C257.477 115.495 256.636 115.495 254.856 115.495C246.651 115.495 241.409 120.625 241.409 128.825V153.993H229.629V153.979Z" fill="#364153"/>
<path d="M295.607 103.246C286.006 103.246 283.057 106.727 280.465 109.271V104.226H268.699V153.965H280.465V125.358C280.465 118.551 285.308 113.805 292.046 113.805C298.669 113.805 302.629 118.054 302.629 124.861V153.979H314.495V123.184C314.495 110.849 307.472 103.246 295.607 103.246Z" fill="#364153"/>
<path d="M156.456 102.762H117.398C114.422 102.762 112 105.164 112 108.134C112 111.104 114.422 113.52 117.398 113.52H156.47C159.448 113.52 161.869 111.104 161.869 108.134C161.855 105.164 159.448 102.762 156.456 102.762ZM150.93 124.278H130.902C127.925 124.278 125.503 126.693 125.503 129.664C125.503 132.634 127.925 135.05 130.902 135.05H150.93C153.907 135.05 156.328 132.634 156.328 129.664C156.314 126.693 153.907 124.278 150.93 124.278Z" fill="#364153"/>
</g>
</svg>
